X:1
T:Quand'io vedo il messia
T:Giovanni Animuccia
T:Source : Secondo libro delle Laude spirituali a tre et quattro voci---Roma---A.Gardano---1583. Editor : André Vierendeels (29/11/17). Notes : Original clefs : G2, C1, C3 Editorial accidentals above the staff Music compiled by Francisco Soto de Langa  
T:Quand'io vedo il messia
T:©
T:©
C:Giovanni Animuccia
Z:©
%%score [ 1 2 3 ]
L:1/8
Q:1/4=120
M:2/2
K:C
V:1 treble nm="Soprano 1" snm="S 1"
V:2 treble nm="Soprano 2" snm="S 2"
V:3 treble-8 nm="Tenor" snm="T"
V:1
"^1)" G2 GG c2 d2 | e4 d4 | d2 dc B2 B2 | A4 G4 :: z4 A2 AA | B2 c2 B4 | B4 d2 dd | d2 f2 e4 | %8
w: Quand' io ve- do'il mes-|si- a,|tra'l bue è l'a- si-|nel- lo,|gia- cer nel|vil ho- stel-|lo con Gio- sef-|fo'et Ma- ri-|
w: Per che ve- ni- sti'o|Di- o,|a pa- tir pe- ne'a-|ma- re?|deh non mi|ti ce- la-|re, che ben ti|co- nos- co|
 d4 g2 gf | e2 e2 d4 | c4 d2 dc | B2 B2 A4 | G8 :| %13
w: a, non ri- man|in me dram-|ma che non fia|fo- co'et fiam-|ma.|
w: io, In ve- ste|per- e- gri-|na, vi- en mae-|sta di- vi-|na.|
V:2
"^2)""^1)" E2 EE A2 B2 | c4 B4 | G2 GE G2 G2- |"^#" G2 F2 G4 :: z4 F2 FF | G2 E2 G4 | G4 B2 BB | %7
w: Quand' io ve- do'il mes-|si- a,|tra'l bue è l'a- si-|* nel- lo,|gia- cer nel|vil ho- stel-|lo con Gio- sef-|
w: Io che per me ve-|ni- sti;|ch'al- tra ca- gion non|_ ha- i,|da pro- var|pe- n'e gua-|i, che gli miei|
"^#" B2 d4 c2 | d4 e2 ed | B2 c4 B2 | c4 B2 BA |"^#" G2 G4 F2 | G8 :| %13
w: fo'et Ma- ri-|a, non ri- man|in me dram-|ma che non fia|fo- co'et fiam-|ma.|
w: fal- li tri-|sti, per le mie|col- pe tan-|te ven- ne'il fe-|del a- man-|te.|
V:3
"^3)""^1)""^4)" c2 cc A2 G2 | c4 g4 | G2 GA G2 G2 | d4 G4 :: z4 d2 dd | G2 A2 G4 | G4 g2 gg | %7
w: Quand' io ve- do'il mes-|si- a,|tra'l bue è l'a- si-|nel- lo,|gia- ver nel|vil ho- stel-|lo con Gio- sef-|
w: Per me dal clien par-|ti- ta,|fe- ce le spo- so|ca- ro:|et per me|me- do chia-|ro, che vuol met-|
 g2 d2 a4 | d4 c2 cd | e2 c2 g4 | c4 G2 GA | B2 G2 d4 | G8 :| %13
w: fo'et Ma- ri-|a, non ri- man|in me dram-|ma che non fia|fo- co'et fiam-|ma.|
w: ter la vi-|ta, O sce- le-|ra- ta'o ri-|a, O tri- st'a-|ni- ma mi-|a.|

